X: 8028
T: Connemara, The
R: hornpipe
M: 4/4
K: Dmajor
|:DE|FGGE DEFD|ADBD A2 Bc|dedB A2 DF|E2 EF E2 DE|
F2 GE D2 DF|ADBD ADBc|dcdB AFEG|F2 D2 D2:|
|:Bc|d2 cA Bcde|fedf efde|fded BdAF|E2 DF EGFE|
F3 E D3 F|ADBD AFGA|dedB AFEG|F2 D2 D2:|

